X:057 
T:Evening in Clare* (reel), An
F:file ID: cre.5/057even_c
B:CRE5.173 (gan ainm)
M:4/4
Q:180
R:reel
K:Am
G|EAAB c2AB|c3d cAGD|EGAB c2cd|ecde cAAG|
EAAB c2AB|c3d cAGD|EGAB c2cd|ecde cAA||
a|aged c2ca|aged cAAa|aged c2ce|g3a gede|
aged c2ca|aged cAA2|ea~a2 gedB|cded cAA2|]

%%%

